packages/symbols/svgs/outline/clock-rotate-left-outline.svg

<svg width="24" height="24" viewBox="0 0 24 24" fill="none" xmlns="http://www.w3.org/2000/svg">
<g clip-path="url(#clip0_1150_5552)">
<path fill-rule="evenodd" clip-rule="evenodd" d="M12 5C12.5523 5 13 5.44772 13 6V11H18C18.5523 11 19 11.4477 19 12C19 12.5523 18.5523 13 18 13H12C11.4477 13 11 12.5523 11 12V6C11 5.44772 11.4477 5 12 5Z" fill="black"/>
<path fill-rule="evenodd" clip-rule="evenodd" d="M18.8363 2.14279C16.4248 0.471186 13.4845 -0.258945 10.5711 0.0904374C7.6578 0.43982 4.97344 1.8445 3.02558 4.0389C1.07772 6.2333 0.0013542 9.06532 0 11.9995C-0.000254652 12.5518 0.447254 12.9997 0.999539 13C1.55182 13.0002 1.99975 12.5527 2 12.0005C2.00113 9.55528 2.8981 7.19526 4.52132 5.36659C6.14453 3.53793 8.3815 2.36736 10.8093 2.07621C13.237 1.78506 15.6874 2.3935 17.6969 3.7865C19.7065 5.1795 21.1361 7.26051 21.7153 9.63608C22.2946 12.0116 21.9834 14.5171 20.8406 16.6788C19.6978 18.8405 17.8026 20.5085 15.5133 21.3676C13.224 22.2266 10.6993 22.2172 8.4165 21.3409C6.96888 20.7853 5.68218 19.9055 4.64717 18.7827L7.66054 19.6223C8.19256 19.7706 8.74401 19.4594 8.89225 18.9274C9.04049 18.3954 8.72938 17.8439 8.19736 17.6957L2.5139 16.1121C2.28881 16.0472 2.04066 16.0608 1.81383 16.1669C1.78669 16.1796 1.76005 16.1935 1.73402 16.2087C1.46819 16.3631 1.29837 16.6237 1.25062 16.9082C1.23355 17.0099 1.23207 17.1146 1.24738 17.2186L1.97377 22.9948C2.04267 23.5428 2.54275 23.9311 3.09072 23.8622C3.63869 23.7933 4.02705 23.2932 3.95814 22.7452L3.69702 20.6688C4.83994 21.7641 6.19768 22.6315 7.6998 23.2081C10.4391 24.2596 13.4688 24.271 16.2159 23.2401C18.9631 22.2092 21.2374 20.2076 22.6087 17.6135C23.9801 15.0195 24.3535 12.013 23.6584 9.16228C22.9633 6.3116 21.2478 3.81439 18.8363 2.14279Z" fill="black"/>
</g>
<defs>
<clipPath id="clip0_1150_5552">
<rect width="24" height="24" fill="white"/>
</clipPath>
</defs>
</svg>

<svg width="24" height="24" viewBox="0 0 24 24" xmlns="http://www.w3.org/2000/svg"><g clip-path="url(#a)" fill-rule="evenodd" clip-rule="evenodd"><path d="M12 5a1 1 0 0 1 1 1v5h5a1 1 0 1 1 0 2h-6a1 1 0 0 1-1-1V6a1 1 0 0 1 1-1Z"/><path d="M18.836 2.143A12 12 0 0 0 0 12a1 1 0 0 0 2 0 10 10 0 1 1 2.647 6.783l3.014.84a1 1 0 1 0 .536-1.927l-5.683-1.584a.997.997 0 0 0-1.263.796.997.997 0 0 0-.004.31l.727 5.777a1 1 0 1 0 1.984-.25l-.261-2.076a12 12 0 1 0 15.14-18.526Z"/></g><defs><clipPath id="a"><path fill="#fff" d="M0 0h24v24H0z"/></clipPath></defs></svg>
